packages/ffe-icons/icons/open/300/sm/3p.svg

<svg xmlns="http://www.w3.org/2000/svg" height="20" viewBox="0 -960 960 960" width="20"><path d="M337.847-401.694h284.306v-33.307q0-28.845-41.731-50.268-41.73-21.423-100.422-21.423t-100.422 21.423q-41.731 21.423-41.731 50.268v33.307Zm142.365-160.307q25.942 0 43.864-18.135 17.923-18.135 17.923-44.076 0-25.942-18.135-43.864-18.135-17.923-44.076-17.923-25.942 0-43.864 18.135-17.923 18.135-17.923 44.076 0 25.942 18.135 43.864 18.135 17.923 44.076 17.923Zm-238.673 302-70.959 70.958q-15.194 15.194-34.886 6.942-19.693-8.252-19.693-29.747v-567.843q0-27.008 18.65-45.658 18.65-18.65 45.658-18.65h599.382q27.008 0 45.658 18.65 18.65 18.65 18.65 45.658v455.382q0 27.008-18.65 45.658-18.65 18.65-45.658 18.65H241.539ZM220.001-312h559.69q4.616 0 8.463-3.846 3.846-3.847 3.846-8.463v-455.382q0-4.616-3.846-8.463-3.847-3.846-8.463-3.846H180.309q-4.616 0-8.463 3.846-3.846 3.847-3.846 8.463v520.076L220.001-312ZM168-312v-480V-312Z"/></svg>

<svg xmlns="http://www.w3.org/2000/svg" height="20" viewBox="0 -960 960 960" width="20"><path d="M337.85-401.69h284.3V-435q0-28.85-41.73-50.27T480-506.69q-58.69 0-100.42 21.42-41.73 21.42-41.73 50.27v33.31ZM480.21-562q25.94 0 43.87-18.14Q542-598.27 542-624.21t-18.14-43.87Q505.73-686 479.79-686t-43.87 18.14Q418-649.73 418-623.79t18.14 43.87Q454.27-562 480.21-562ZM241.54-260l-70.96 70.96q-15.19 15.19-34.89 6.94Q116-190.35 116-211.85v-567.84q0-27.01 18.65-45.66Q153.3-844 180.31-844h599.38q27.01 0 45.66 18.65Q844-806.7 844-779.69v455.38q0 27.01-18.65 45.66Q806.7-260 779.69-260H241.54ZM220-312h559.69q4.62 0 8.46-3.85 3.85-3.84 3.85-8.46v-455.38q0-4.62-3.85-8.46-3.84-3.85-8.46-3.85H180.31q-4.62 0-8.46 3.85-3.85 3.84-3.85 8.46v520.08L220-312Zm-52 0v-480 480Z"/></svg>
